src/status/32/strawberry-panel-grey.svg

<svg xmlns="http://www.w3.org/2000/svg" xmlns:xlink="http://www.w3.org/1999/xlink" width="32" height="32" viewBox="0 0 32 32" version="1.1">
<g id="surface1">
<path style="fill-rule:nonzero;fill:rgb(18.039216%,20.392157%,25.098041%);fill-opacity:1;stroke-width:2.7915;stroke-linecap:butt;stroke-linejoin:miter;stroke:rgb(18.039216%,20.392157%,25.098041%);stroke-opacity:1;stroke-miterlimit:4;" d="M 9.688612 34.392049 C 13.832602 31.574046 17.862945 30.449375 21.938938 30.204689 C 18.305341 27.178978 15.597741 22.841768 14.151068 16.555762 C 14.135049 16.528017 14.132903 16.492263 14.138766 16.470381 C 13.936227 15.60699 14.466939 14.764171 15.316457 14.569641 C 18.472259 13.820418 21.774536 13.837478 25.194964 14.507696 C 27.054347 14.87691 28.932471 15.438768 30.878963 16.183115 C 30.094459 14.471934 29.601852 12.7217 29.409153 10.946286 C 29.077256 7.808491 29.724597 4.604734 31.631926 1.468873 C 31.919949 1.006631 32.417211 0.682538 32.999436 0.697823 C 36.134667 0.681851 38.922983 2.179445 41.363652 4.580635 C 43.307319 6.473412 45.005156 8.933548 46.511502 11.670715 C 47.590199 8.957782 49.047904 6.580928 50.799811 4.681601 C 53.214297 2.103778 56.234776 0.415362 59.821358 0.0278171 C 60.502261 -0.106354 61.197194 0.23229 61.516 0.880579 C 62.877181 3.590576 63.306186 6.672306 63.068161 9.880197 C 62.900752 11.993001 62.457465 14.172602 61.797505 16.329327 C 63.145856 15.717313 64.596183 15.249887 66.148485 14.927049 C 69.175719 14.307546 72.610857 14.266395 76.47421 14.902847 L 76.531846 14.906563 C 77.400681 15.033822 78.002382 15.851721 77.875123 16.720557 C 77.0019 22.73676 74.466334 27.123187 70.907867 30.250519 C 74.17397 30.621406 77.618009 31.684921 81.528322 33.940474 C 83.02231 34.798104 84.373856 35.793465 85.580815 36.890801 C 86.803793 38.015883 87.854439 39.258959 88.724742 40.606158 C 92.384309 46.335901 92.638267 54.272366 91.12482 62.415404 C 89.114324 73.157515 83.994354 84.34465 79.776819 90.719501 C 76.362577 95.890693 72.090231 101.113397 66.818911 106.431953 C 61.567326 111.720618 55.342365 117.053363 47.959393 122.462801 C 47.210856 123.024454 46.219315 123.005034 45.485905 122.503637 C 37.838449 117.171177 31.022346 111.580687 25.130986 105.733739 C 19.223608 99.859045 14.260708 93.698002 10.341542 87.230296 C 5.53176 79.316139 0.294647 66.913531 0.013986 55.663063 C -0.198512 47.221744 2.317784 39.406043 9.688612 34.392049 Z M 15.081479 56.323054 C 17.074922 53.78486 17.777233 52.214076 17.778906 50.807355 C 17.780579 49.400634 16.804583 47.966484 15.081936 47.962247 C 13.345417 47.966019 12.546993 49.370333 12.54532 50.777054 C 12.55752 52.175765 13.134774 53.303727 15.081479 56.323054 Z M 54.251656 105.937643 C 56.253109 103.413321 56.961283 101.820656 56.957093 100.435817 C 56.958766 99.029096 55.98277 97.594946 54.260123 97.590708 C 52.523604 97.59448 51.739053 98.990785 51.729371 100.383633 C 51.727698 101.790354 52.304951 102.918316 54.251656 105.937643 Z M 39.026122 105.035957 C 41.027575 102.511635 41.721876 100.926979 41.723549 99.520259 C 41.719359 98.13542 40.735354 96.687397 39.020716 96.697032 C 37.29807 96.692795 36.491636 98.083236 36.489964 99.489957 C 36.502163 100.888669 37.065544 102.02464 39.026122 105.035957 Z M 31.242229 90.496888 C 33.243682 87.972567 33.951856 86.379901 33.947666 84.995062 C 33.949339 83.588342 32.973343 82.154192 31.250696 82.149954 C 29.514177 82.153726 28.715753 83.55804 28.719943 84.942879 C 28.732143 86.34159 29.295524 87.477562 31.242229 90.496888 Z M 62.152186 90.500083 C 64.167511 87.967752 64.861813 86.383096 64.857623 84.998257 C 64.859296 83.591537 63.87529 82.143514 62.160653 82.153149 C 60.438006 82.148912 59.639582 83.553226 59.6299 84.946074 C 59.6421 86.344786 60.205481 87.480757 62.152186 90.500083 Z M 46.482993 89.022194 C 48.484446 86.497872 49.178748 84.913216 49.18843 83.520368 C 49.17623 82.121656 48.200234 80.687506 46.477588 80.683269 C 44.754941 80.679031 43.956517 82.083345 43.946835 83.476194 C 43.959035 84.874905 44.530425 86.024749 46.482993 89.022194 Z M 70.682997 75.161044 C 72.676441 72.62285 73.378751 71.052066 73.380424 69.645346 C 73.390107 68.252497 72.392229 66.812484 70.683454 66.800237 C 68.946935 66.804009 68.148512 68.208323 68.146839 69.615044 C 68.159038 71.013755 68.736292 72.141717 70.682997 75.161044 Z M 56.024663 74.024363 C 58.026116 71.500041 58.720417 69.915385 58.7301 68.522537 C 58.7179 67.123826 57.733895 65.675803 56.019257 65.685438 C 54.296611 65.681201 53.490177 67.071642 53.488505 68.478363 C 53.486832 69.885084 54.064085 71.013046 56.024663 74.024363 Z M 38.52818 74.026904 C 40.529633 71.502583 41.223935 69.917927 41.233617 68.525078 C 41.23529 67.118358 40.251285 65.670335 38.536647 65.67997 C 36.800128 65.683742 36.001704 67.088056 35.992022 68.480904 C 36.004222 69.879616 36.581475 71.007578 38.52818 74.026904 Z M 23.306678 74.029233 C 25.300122 71.491039 26.002433 69.920255 26.004106 68.513534 C 25.999915 67.128695 25.01591 65.680673 23.293263 65.676435 C 21.570617 65.672198 20.772193 67.076512 20.77052 68.483233 C 20.760838 69.876081 21.346101 71.017915 23.306678 74.029233 Z M 77.417972 56.32714 C 79.411415 53.788946 80.127599 52.210153 80.115399 50.811441 C 80.117072 49.40472 79.141076 47.97057 77.418429 47.966333 C 75.68191 47.970105 74.883486 49.374419 74.895686 50.77313 C 74.907886 52.171842 75.471267 53.307813 77.417972 56.32714 Z M 62.081197 56.322035 C 64.08265 53.797713 64.776952 52.213057 64.778625 50.806336 C 64.788307 49.413488 63.804301 47.965465 62.081655 47.961228 C 60.345136 47.965 59.546712 49.369314 59.545039 50.776035 C 59.557239 52.174746 60.134492 53.302708 62.081197 56.322035 Z M 47.269011 56.328498 C 49.262455 53.790304 49.978638 52.211511 49.966439 50.812799 C 49.968112 49.406078 48.992116 47.971928 47.269469 47.967691 C 45.546822 47.963454 44.734526 49.375777 44.746726 50.774488 C 44.758925 52.1732 45.314297 53.295298 47.269011 56.328498 Z M 30.066573 56.327741 C 32.073889 53.781537 32.7762 52.210754 32.764 50.812042 C 32.765673 49.405321 31.789677 47.971171 30.06703 47.966934 C 28.344384 47.962696 27.54596 49.36701 27.544287 50.773731 C 27.534605 52.16658 28.119868 53.308414 30.066573 56.327741 Z M 28.142759 30.377692 C 30.323355 30.598444 32.526408 30.954204 34.765216 31.307817 C 38.71395 31.931967 42.821721 32.575277 47.075491 32.542395 C 51.156353 32.498363 54.861506 32.412295 58.284184 31.804937 C 60.783688 31.360647 63.107979 30.388628 65.515245 30.201058 C 65.862057 30.000823 66.208868 29.800587 66.54767 29.58648 C 70.397198 27.123456 73.279315 23.369299 74.454749 17.844494 C 71.600108 17.513496 69.051396 17.616262 66.796309 18.067409 C 64.017209 18.636132 61.665749 19.753315 59.715753 21.341585 C 59.016843 21.893082 58.026872 21.780272 57.469512 21.103244 C 57.095792 20.616137 57.01554 19.996588 57.249644 19.472993 C 58.653689 16.202281 59.649989 12.834044 59.876288 9.669916 L 59.890161 9.661907 C 60.048984 7.406086 59.834821 5.273129 59.124966 3.370874 C 56.800516 3.862068 54.793303 5.094941 53.128348 6.888576 C 50.957127 9.214966 49.358291 12.468665 48.343984 16.254228 C 48.115325 17.107621 47.24136 17.612214 46.387967 17.383555 C 45.906566 17.254568 45.535569 16.932361 45.344913 16.506032 C 43.633306 12.740575 41.557298 9.240999 39.132648 6.867554 C 37.522078 5.263376 35.764932 4.206244 33.890106 3.93843 C 32.72587 6.182841 32.336502 8.423795 32.56883 10.620252 C 32.863245 13.372758 34.125173 16.103068 36.092032 18.740823 C 36.621647 19.43387 36.46722 20.447869 35.766163 20.963612 C 35.251312 21.353351 34.577843 21.37225 34.044093 21.08852 C 30.786101 19.418175 27.607785 18.238235 24.565212 17.645807 C 22.168938 17.179643 19.843755 17.060868 17.637718 17.372714 C 19.501299 24.028408 23.138929 27.958132 27.848139 30.251846 C 27.965558 30.295033 28.047222 30.340368 28.142759 30.377692 Z M 63.161173 34.741652 C 58.174206 36.548118 52.460529 37.127944 46.814905 36.928608 C 41.688006 36.762723 36.754746 36.355561 32.30901 35.222999 C 25.181124 34.122269 18.561965 33.486188 12.088555 37.908062 C 6.11026 41.970088 4.082901 48.486173 4.249591 55.566682 C 4.51664 65.992654 9.440234 77.595946 13.963823 85.046449 C 17.690764 91.181216 22.443848 97.074966 28.121676 102.712258 C 33.502162 108.058803 39.702274 113.191084 46.680396 118.133127 C 53.328128 113.148188 58.998767 108.264964 63.78942 103.427391 C 68.859093 98.336238 72.957536 93.324919 76.233629 88.362967 C 80.22821 82.338801 85.049007 71.786817 86.944965 61.647242 C 88.279956 54.476587 88.153888 47.594585 85.160673 42.922866 C 84.46443 41.845107 83.645481 40.875187 82.703827 40.013106 C 81.746154 39.123281 80.657766 38.327421 79.430653 37.611656 C 73.307392 34.118212 68.335812 34.029122 63.161173 34.741652 Z M 63.161173 34.741652 " transform="matrix(0.211185,0.12193,-0.12193,0.211185,12.983272,-1.917091)"/>
</g>
</svg>

<svg width="32" height="32" version="1.1" viewBox="0 0 32 32" xmlns="http://www.w3.org/2000/svg">
 <g fill="#7b88a1" stroke="#7b88a1">
  <path transform="matrix(.21118 .12193 -.12193 .21118 12.983 -1.9171)" d="m9.6886 34.392c4.144-2.818 8.1743-3.9427 12.25-4.1874-3.6336-3.0257-6.3412-7.3629-7.7879-13.649-0.016019-0.027745-0.018165-0.063499-0.012302-0.085381-0.20254-0.86339 0.32817-1.7062 1.1777-1.9007 3.1558-0.74922 6.4581-0.73216 9.8785-0.061945 1.8594 0.36921 3.7375 0.93107 5.684 1.6754-0.7845-1.7112-1.2771-3.4614-1.4698-5.2368-0.3319-3.1378 0.31544-6.3416 2.2228-9.4774 0.28802-0.46224 0.78528-0.78634 1.3675-0.77105 3.1352-0.015972 5.9235 1.4816 8.3642 3.8828 1.9437 1.8928 3.6415 4.3529 5.1478 7.0901 1.0787-2.7129 2.5364-5.0898 4.2883-6.9891 2.4145-2.5778 5.435-4.2662 9.0215-4.6538 0.6809-0.13417 1.3758 0.20447 1.6946 0.85276 1.3612 2.71 1.7902 5.7917 1.5522 8.9996-0.16741 2.1128-0.6107 4.2924-1.2707 6.4491 1.3484-0.61201 2.7987-1.0794 4.351-1.4023 3.0272-0.6195 6.4624-0.66065 10.326-0.024202l0.057636 0.003716c0.86884 0.12726 1.4705 0.94516 1.3433 1.814-0.87322 6.0162-3.4088 10.403-6.9673 13.53 3.2661 0.37089 6.7101 1.4344 10.62 3.69 1.494 0.85763 2.8455 1.853 4.0525 2.9503 1.223 1.1251 2.2736 2.3682 3.1439 3.7154 3.6596 5.7297 3.9135 13.666 2.4001 21.809-2.0105 10.742-7.1305 21.929-11.348 28.304-3.4142 5.1712-7.6866 10.394-12.958 15.712-5.2516 5.2887-11.477 10.621-18.86 16.031-0.74854 0.56165-1.7401 0.54223-2.4735 0.040836-7.6475-5.3325-14.464-10.923-20.355-16.77-5.9074-5.8747-10.87-12.036-14.789-18.503-4.8098-7.9142-10.047-20.317-10.328-31.567-0.2125-8.4413 2.3038-16.257 9.6746-21.271zm5.3929 21.931c1.9934-2.5382 2.6958-4.109 2.6974-5.5157s-0.97432-2.8409-2.697-2.8451c-1.7365 0.003772-2.5349 1.4081-2.5366 2.8148 0.0122 1.3987 0.58945 2.5267 2.5362 5.546zm39.17 49.615c2.0015-2.5243 2.7096-4.117 2.7054-5.5018 0.001673-1.4067-0.97432-2.8409-2.697-2.8451-1.7365 0.003772-2.5211 1.4001-2.5308 2.7929-0.001673 1.4067 0.57558 2.5347 2.5223 5.554zm-15.226-0.90169c2.0015-2.5243 2.6958-4.109 2.6974-5.5157-0.00419-1.3848-0.9882-2.8329-2.7028-2.8232-1.7226-0.004237-2.5291 1.3862-2.5308 2.7929 0.012199 1.3987 0.57558 2.5347 2.5362 5.546zm-7.7839-14.539c2.0015-2.5243 2.7096-4.117 2.7054-5.5018 0.001673-1.4067-0.97432-2.8409-2.697-2.8451-1.7365 0.003772-2.5349 1.4081-2.5308 2.7929 0.0122 1.3987 0.57558 2.5347 2.5223 5.554zm30.91 0.003195c2.0153-2.5323 2.7096-4.117 2.7054-5.5018 0.001673-1.4067-0.98233-2.8547-2.697-2.8451-1.7226-0.004237-2.5211 1.4001-2.5308 2.7929 0.0122 1.3987 0.57558 2.5347 2.5223 5.554zm-15.669-1.4779c2.0015-2.5243 2.6958-4.109 2.7054-5.5018-0.0122-1.3987-0.9882-2.8329-2.7108-2.8371-1.7226-0.004238-2.5211 1.4001-2.5308 2.7929 0.0122 1.3987 0.58359 2.5486 2.5362 5.546zm24.2-13.861c1.9934-2.5382 2.6958-4.109 2.6974-5.5157 0.009683-1.3928-0.9882-2.8329-2.697-2.8451-1.7365 0.003772-2.5349 1.4081-2.5366 2.8148 0.012199 1.3987 0.58945 2.5267 2.5362 5.546zm-14.658-1.1367c2.0015-2.5243 2.6958-4.109 2.7054-5.5018-0.0122-1.3987-0.9962-2.8467-2.7108-2.8371-1.7226-0.004237-2.5291 1.3862-2.5308 2.7929-0.001673 1.4067 0.57558 2.5347 2.5362 5.546zm-17.496 0.002541c2.0015-2.5243 2.6958-4.109 2.7054-5.5018 0.001673-1.4067-0.98233-2.8547-2.697-2.8451-1.7365 0.003772-2.5349 1.4081-2.5446 2.8009 0.0122 1.3987 0.58945 2.5267 2.5362 5.546zm-15.222 0.002329c1.9934-2.5382 2.6958-4.109 2.6974-5.5157-0.004191-1.3848-0.9882-2.8329-2.7108-2.8371-1.7226-0.004237-2.5211 1.4001-2.5227 2.8068-0.009682 1.3928 0.57558 2.5347 2.5362 5.546zm54.111-17.702c1.9934-2.5382 2.7096-4.117 2.6974-5.5157 0.001673-1.4067-0.97432-2.8409-2.697-2.8451-1.7365 0.003772-2.5349 1.4081-2.5227 2.8068 0.0122 1.3987 0.57558 2.5347 2.5223 5.554zm-15.337-0.005105c2.0015-2.5243 2.6958-4.109 2.6974-5.5157 0.009682-1.3928-0.97432-2.8409-2.697-2.8451-1.7365 0.003772-2.5349 1.4081-2.5366 2.8148 0.0122 1.3987 0.58945 2.5267 2.5362 5.546zm-14.812 0.006463c1.9934-2.5382 2.7096-4.117 2.6974-5.5157 0.001673-1.4067-0.97432-2.8409-2.697-2.8451s-2.5349 1.4081-2.5227 2.8068c0.012199 1.3987 0.56757 2.5208 2.5223 5.554zm-17.202-7.57e-4c2.0073-2.5462 2.7096-4.117 2.6974-5.5157 0.001673-1.4067-0.97432-2.8409-2.697-2.8451-1.7226-0.004238-2.5211 1.4001-2.5227 2.8068-0.009682 1.3928 0.57558 2.5347 2.5223 5.554zm-1.9238-25.95c2.1806 0.22075 4.3836 0.57651 6.6225 0.93012 3.9487 0.62415 8.0565 1.2675 12.31 1.2346 4.0809-0.044032 7.786-0.1301 11.209-0.73746 2.4995-0.44429 4.8238-1.4163 7.2311-1.6039 0.34681-0.20024 0.69362-0.40047 1.0324-0.61458 3.8495-2.463 6.7316-6.2172 7.9071-11.742-2.8546-0.331-5.4034-0.22823-7.6584 0.22292-2.7791 0.56872-5.1306 1.6859-7.0806 3.2742-0.69891 0.5515-1.6889 0.43869-2.2462-0.23834-0.37372-0.48711-0.45397-1.1067-0.21987-1.6303 1.404-3.2707 2.4003-6.6389 2.6266-9.8031l0.013873-0.008009c0.15882-2.2558-0.05534-4.3888-0.7652-6.291-2.3244 0.49119-4.3317 1.7241-5.9966 3.5177-2.1712 2.3264-3.7701 5.5801-4.7844 9.3657-0.22866 0.85339-1.1026 1.358-1.956 1.1293-0.4814-0.12899-0.8524-0.45119-1.0431-0.87752-1.7116-3.7655-3.7876-7.265-6.2123-9.6385-1.6106-1.6042-3.3677-2.6613-5.2425-2.9291-1.1642 2.2444-1.5536 4.4854-1.3213 6.6818 0.29442 2.7525 1.5563 5.4828 3.5232 8.1206 0.52962 0.69305 0.37519 1.707-0.32587 2.2228-0.51485 0.38974-1.1883 0.40864-1.7221 0.12491-3.258-1.6703-6.4363-2.8503-9.4789-3.4427-2.3963-0.46616-4.7215-0.58494-6.9275-0.27309 1.8636 6.6557 5.5012 10.585 10.21 12.879 0.11742 0.043187 0.19908 0.088522 0.29462 0.12585zm35.018 4.364c-4.987 1.8065-10.701 2.3863-16.346 2.187-5.1269-0.16588-10.06-0.57305-14.506-1.7056-7.1279-1.1007-13.747-1.7368-20.22 2.6851-5.9783 4.062-8.0057 10.578-7.839 17.659 0.26705 10.426 5.1906 22.029 9.7142 29.48 3.7269 6.1348 8.48 12.029 14.158 17.666 5.3805 5.3465 11.581 10.479 18.559 15.421 6.6477-4.9849 12.318-9.8682 17.109-14.706 5.0697-5.0912 9.1681-10.102 12.444-15.064 3.9946-6.0242 8.8154-16.576 10.711-26.716 1.335-7.1707 1.2089-14.053-1.7843-18.724-0.69624-1.0778-1.5152-2.0477-2.4568-2.9098-0.95767-0.88982-2.0461-1.6857-3.2732-2.4014-6.1233-3.4934-11.095-3.5825-16.269-2.87z" fill="#7b88a1" stroke="#7b88a1" stroke-width="2.7915"/>
 </g>
</svg>
